X: 25378
T: Marcelle And Marcel
R: waltz
M: 3/4
K: Cmajor
zC EG ce||"C"d3c ec|"Cmaj7"B3A cB|"C6"E6|"C"z2 (3CEG ce|
d3c ec|"Cmaj7"B3A Bc|"F"f6|zA Bc df|"Dm9"e3d fd|
"Aaug"^c3A AA|"F"G2 F4|zG ^FGBG|"G7"A6|zG ^FGBG|
"Dm6"AB ABAB|"G7"Gz "(n.c.)"(3CEG ce|"C"dz dc ec|"Cmaj7"B3A cB|"C6"E6|
"C"z2 (3CEG ce|dz dcec|"C9"dz dcec|"F6"d6|zd efed|
"F"fd efed|"Fm"fd efed|"C"ec dedc|"D7"ec dedc|"Dm6"(3BdB (3ABA G2|
"G7"(3BdB (3ABA G2|"C"c z2 GE2|C2 [c2e2][c2e2]|:"G7"[B2f2] G[Bf][Bf]G|[B2f2] G[Bf][Bf]G|"C"[c2e2] G[ce][ce]G|
[1"C"[c2e2] G[ce][ce]G|"G7"[B2f2] G[Bf][Bf]G|[B2f2] G[Bf][Bf]G|"C"[c2e2] G[ce][ce]G|CE Gcec:|
[2"C"gGeGcG|"G7"[B2f2] G[Bf][Bf]G|[B2f2] G[Bf][Bf]G|"C"c z2 GE2|C2 z2z2||

